X:1
T:Title
%%score [ ( 1 2 ) ( 3 4 ) ]
L:1/8
Q:1/4=120
M:4/4
K:C
V:1 treble nm=" " snm=" "
V:2 treble 
V:3 bass nm="Midi_74"
V:4 bass 
V:1
"^J. Hupton and J.M. Neale" C3 D E2 C2 | E2 F2"^Come, ye faithful, raise the anthem" G2 G2 | %2
w: Come, ye faith- ful,|raise the an- them,|
w: ||
w: Now on those e-|ter- nal moun- tains|
 c2 BA G2 e2 | d2 d2"^Melody by J. Neander" c4 | C3 D E2 C2 | E2 F2 G2 G2 | c2 BA G2 e2 | %7
w: cleave the * skies with|shouts of praise;|sing to him who|found the ran- som,|an- cient * of e-|
w: |||||
w: stands the * sap- phire|throne, all bright,|with the cease- less|al- le- lu- ias|which they * raise, the|
 d2 d2 c4 | e3 e d2 d2 | c3 c B2 B2 | A3 A G2 c2 | d2 B2 c4 |"^Unison" C3 D E2 C2 | E2 F2 G2 G2 | %14
w: ter- nal days,|God e- ter- nal,|Word in- car- nate,|whom the heav'n of|heav'n o- beys.|Laud and ho- nour|to the Fa- ther,|
w: |||||||
w: sons of light;|Si- on's peo- ple|tell his prais- es,|vic- tor af- ter|hard- won fight.|||
 c2 BA G2 e2 | d2 d2 c4 | C3 D E2 C2 | E2 F2 G2 G2 | c2 BA G2 e2 | d2 d2 c4 | %20
w: laud and * ho- nour|to the Son,|laud and ho- nour|to the Spi- rit,|ev- er * Three and|ev- er One,|
w: ||||||
w: ||||||
"^This edition produced by Andrew Sims 2014, words and music from the New English Hymnal" e3 e d2 d2 | %21
w: One in love, and|
w: |
w: |
 c3 c B2 B2 | A3 A G2 c2 | d2 B2 c4 || c4 c4 |] %25
w: One in splen- dour,|while un- end- ing|a- ges run.|A- men.|
w: ||||
w: ||||
V:2
 C3 B, C2 C2 | C2 C2 D2 D2 | C2 D2 E2 G2 | A2 G2 E4 | C3 B, C2 C2 | C2 C2 D2 D2 | C2 D2 E2 G2 | %7
w: |||||||
w: Ere he raised the|lof- ty moun- tains,|formed the sea, or|built the sky,|love e- ter- nal,|free, and bound- less,|forced the Lord of|
w: |||||||
w: Bring your harps, and|bring your in- cense,|sweep the string and|pour the lay;|let the earth pro-|claim his won- ders,|King of that ce-|
 A2 G2 E4 | G3 G G2 G2 | E3 E E2 E2 | C2 B,2 C2 E2 | D2 D2 E4 | x8 | x8 | x8 | x8 | x8 | x8 | x8 | %19
w: ||||||||||||
w: life to die,|lift- ed up the|Prince of prin- ces|on the throne of|Cal- va- ry.||||||||
w: ||||||||||||
w: le- stial day;|he the Lamb once|slain is wor- thy,|who was dead, and|lives for ay.||||||||
 x8 | x8 | x8 | x8 | x8 || F4 E4 |] %25
w: ||||||
w: ||||||
w: ||||||
w: ||||||
V:3
 E,3 G, G,2 G,2 | A,2 C2 C2 B,2 | A,2 B,2 C2 C2 | C2 B,2 C4 | E,3 G, G,2 G,2 | A,2 C2 C2 B,2 | %6
 A,2 B,2 C2 C2 | C2 B,2 C4 | C3 C C2 B,2 | A,3 A, A,2 ^G,2 | A,2 F,2 G,2 A,2 | A,2 G,2 G,4 | %12
[M:4/4] z8 | z8 | z8 | z8 |[M:4/4] z8 | z8 | z8 | z8 |[M:4/4] x8 | x8 | x8 | x8 || A,4 G,4 |] %25
V:4
 C,3 G,, C,2 E,2 | A,2 A,2 G,2 G,2 | A,2 G,F, E,2 C,2 | F,2 G,2 C,4 | C,3 G,, C,2 E,2 | %5
 A,2 A,2 G,2 G,2 | A,2 G,F, E,2 C,2 | F,2 G,2 C,4 | C,2 E,F, G,2 G,2 | A,2 C,D, E,2 E,2 | %10
 F,2 D,2 E,2 A,2 | F,2 G,2 C,4 |[M:4/4] x8 | x8 | x8 | x8 |[M:4/4] x8 | x8 | x8 | x8 |[M:4/4] x8 | %21
 x8 | x8 | x8 || F,4 C,4 |] %25

